X:1
T: The Deerness Reel
C:W. Lennie
R:Reel
Q: 232
K:D
M:4/4
L:1/8
|:A,2 D2 GF ED|A2 D2 F3D|A,2 D2 GF ED|A2 D2 F2 A2|
fg af d2 f2|ef ge B2 g2|f2 d2 e3c|d2 D2 D4:|
|:f2 d2 A2 d2|F2 d2 A2 g2|=c2 G3=F E2|=C2 C2 C4|
|1f2 d2 A2 d2|F2 d2 A2 g2|fg af g3e|f2 d2 d4:|
|2D2 A,2 D3E|F2 G2 A2 g2|f2 d2 e3c|d2 D2 D4|
